packages/react-icons/icons/wifi-empty.svg

<svg width="24" height="25" viewBox="0 0 24 25" xmlns="http://www.w3.org/2000/svg"><path fill-rule="evenodd" clip-rule="evenodd" d="M18.782 9.62729L11.9288 16.4804L5.20566 9.75727C9.22884 6.81266 14.7157 6.7693 18.782 9.62729ZM12.6707 18.2841C12.261 18.6938 11.5967 18.6938 11.1869 18.2841L3.30453 10.4017C2.89478 9.99198 2.89293 9.32349 3.33295 8.94644C8.2998 4.69032 15.6312 4.63968 20.6546 8.79382C21.1062 9.16731 21.1099 9.84496 20.6955 10.2594L12.6707 18.2841Z"/></svg>

<svg xmlns="http://www.w3.org/2000/svg" width="24" height="25"><path fill-rule="evenodd" d="m18.782 9.627-6.853 6.853-6.723-6.723a11.677 11.677 0 0 1 13.576-.13Zm-6.111 8.657a1.05 1.05 0 0 1-1.484 0l-7.882-7.882c-.41-.41-.412-1.079.028-1.456C8.3 4.69 15.63 4.64 20.655 8.794c.451.373.455 1.051.04 1.465l-8.024 8.025Z" clip-rule="evenodd"/></svg>
